build/images/main/2group.svg

<svg width="584" height="45" viewBox="0 0 584 45"  preserveAspectRatio="none"  fill="none" xmlns="http://www.w3.org/2000/svg">
<path d="M583 30L571 42H583V30Z" fill="white" stroke="white"/>
<g clip-path="url(#clip0_851_4165)">
<path d="M5.57865 43.7868C4.82773 44.564 3.82117 44.9987 2.7733 44.9985H0L5.20973 39.4602C5.6449 38.9971 6.16163 38.6299 6.73036 38.3793C7.2991 38.1288 7.90869 37.9999 8.5243 38H11.1594L5.57865 43.7868ZM18.3541 38H15.7189C15.1033 38 14.4938 38.129 13.9251 38.3795C13.3563 38.63 12.8396 38.9972 12.4044 39.4602L7.1932 45H9.9665C11.0144 45.0004 12.021 44.5656 12.7719 43.7883L18.3541 38ZM25.5473 38H22.9121C22.2965 38 21.687 38.129 21.1183 38.3795C20.5495 38.63 20.0328 38.9972 19.5976 39.4602L14.3864 45H17.1569C18.2048 45.0004 19.2114 44.5656 19.9622 43.7883L25.5473 38ZM32.7405 38H30.1053C29.4897 38 28.8802 38.129 28.3115 38.3795C27.7427 38.63 27.226 38.9972 26.7908 39.4602L21.5796 45H24.3522C25.4001 45.0004 26.4067 44.5656 27.1575 43.7883L32.7405 38ZM39.9337 38H37.2985C36.6829 37.9999 36.0733 38.1288 35.5046 38.3793C34.9359 38.6299 34.4191 38.9971 33.984 39.4602L28.7678 45H31.5404C32.5883 45.0004 33.5949 44.5656 34.3458 43.7883L39.9337 38ZM47.1269 38H44.4917C43.8761 37.9999 43.2665 38.1288 42.6978 38.3793C42.1291 38.6299 41.6123 38.9971 41.1772 39.4602L35.9596 45H38.7322C39.7801 45.0004 40.7867 44.5656 41.5375 43.7883L47.1269 38ZM54.3201 38H51.6849C51.0673 37.9982 50.4554 38.1263 49.8845 38.3768C49.3136 38.6274 48.7949 38.9956 48.3583 39.4602L43.1514 45H45.9247C46.9726 45.0002 47.9791 44.5655 48.73 43.7883L54.3201 38ZM61.5133 38H58.8781C58.2605 37.9982 57.6486 38.1263 57.0777 38.3768C56.5068 38.6274 55.9881 38.9956 55.5515 39.4602L50.3432 45H53.1165C54.1643 45.0002 55.1709 44.5655 55.9218 43.7883L61.5133 38ZM68.7065 38H66.0714C65.4537 37.9983 64.8419 38.1264 64.271 38.377C63.7001 38.6276 63.1814 38.9957 62.7447 39.4602L57.5349 45H60.3082C61.3561 45.0002 62.3627 44.5655 63.1136 43.7883L68.7065 38ZM75.8997 38H73.2645C72.6469 37.9982 72.035 38.1262 71.4641 38.3768C70.8931 38.6274 70.3745 38.9956 69.9379 39.4602L64.7267 45H67.5C68.5479 45.0004 69.5545 44.5656 70.3054 43.7883L75.8997 38ZM83.0929 38H80.4578C79.8401 37.9982 79.2282 38.1262 78.6573 38.3768C78.0863 38.6274 77.5677 38.9956 77.1311 39.4602L71.9213 45H74.6939C75.7418 45.0004 76.7485 44.5656 77.4993 43.7883L83.0929 38ZM90.2861 38H87.651C87.0333 37.9982 86.4214 38.1263 85.8505 38.3768C85.2796 38.6274 84.7609 38.9956 84.3243 39.4602L79.111 45H81.8836C82.9315 45.0004 83.9381 44.5656 84.6889 43.7883L90.2861 38ZM97.4793 38H94.8442C94.2286 37.9999 93.619 38.1288 93.0502 38.3793C92.4815 38.6299 91.9648 38.9971 91.5296 39.4602L86.3199 45H89.0932C90.1409 45.0004 91.1473 44.5656 91.8978 43.7883L97.4793 38ZM104.672 38H102.037C101.422 37.9999 100.812 38.1288 100.243 38.3793C99.6747 38.6299 99.158 38.9971 98.7228 39.4602L93.5131 45H96.2864C97.3342 45.0002 98.3408 44.5655 99.0917 43.7883L104.672 38ZM111.866 38H109.231C108.615 38 108.005 38.1289 107.437 38.3794C106.868 38.63 106.351 38.9972 105.916 39.4602L100.706 45H103.48C104.527 45.0002 105.534 44.5655 106.285 43.7883L111.866 38ZM119.059 38H116.424C115.808 38 115.199 38.129 114.63 38.3795C114.061 38.63 113.544 38.9972 113.109 39.4602L107.899 45H110.673C111.721 45.0002 112.727 44.5655 113.478 43.7883L119.059 38ZM126.252 38H123.617C123.001 37.9999 122.392 38.1289 121.823 38.3794C121.255 38.6299 120.738 38.9972 120.303 39.4602L115.07 45H117.843C118.891 45.0004 119.898 44.5656 120.649 43.7883L126.252 38ZM133.445 38H130.81C130.195 37.9999 129.585 38.1288 129.016 38.3793C128.447 38.6299 127.931 38.9971 127.496 39.4602L122.285 45H125.058C126.106 45.0004 127.113 44.5656 127.864 43.7883L133.445 38ZM140.639 38H138.003C137.388 37.9999 136.778 38.1288 136.209 38.3793C135.641 38.6299 135.124 38.9971 134.689 39.4602L129.479 45H132.252C133.3 45.0004 134.306 44.5656 135.057 43.7883L140.639 38ZM147.832 38H145.197C144.581 37.9999 143.971 38.1288 143.403 38.3793C142.834 38.6299 142.317 38.9971 141.882 39.4602L136.672 45H139.446C140.493 45.0004 141.5 44.5656 142.25 43.7883L147.832 38ZM155.025 38H152.39C151.774 38 151.165 38.1289 150.596 38.3794C150.027 38.63 149.51 38.9972 149.075 39.4602L143.865 45H146.639C147.687 45.0002 148.693 44.5655 149.444 43.7883L155.025 38Z" fill="white"/>
</g>
<g clip-path="url(#clip1_851_4165)">
<path d="M157.579 43.7868C156.828 44.564 155.821 44.9987 154.773 44.9985H152L157.21 39.4602C157.645 38.9971 158.162 38.6299 158.73 38.3793C159.299 38.1288 159.909 37.9999 160.524 38H163.159L157.579 43.7868ZM170.354 38H167.719C167.103 38 166.494 38.129 165.925 38.3795C165.356 38.63 164.84 38.9972 164.404 39.4602L159.193 45H161.967C163.014 45.0004 164.021 44.5656 164.772 43.7883L170.354 38ZM177.547 38H174.912C174.297 38 173.687 38.129 173.118 38.3795C172.55 38.63 172.033 38.9972 171.598 39.4602L166.386 45H169.157C170.205 45.0004 171.211 44.5656 171.962 43.7883L177.547 38ZM184.74 38H182.105C181.49 38 180.88 38.129 180.311 38.3795C179.743 38.63 179.226 38.9972 178.791 39.4602L173.58 45H176.352C177.4 45.0004 178.407 44.5656 179.158 43.7883L184.74 38ZM191.934 38H189.299C188.683 37.9999 188.073 38.1288 187.505 38.3793C186.936 38.6299 186.419 38.9971 185.984 39.4602L180.768 45H183.54C184.588 45.0004 185.595 44.5656 186.346 43.7883L191.934 38ZM199.127 38H196.492C195.876 37.9999 195.267 38.1288 194.698 38.3793C194.129 38.6299 193.612 38.9971 193.177 39.4602L187.96 45H190.732C191.78 45.0004 192.787 44.5656 193.538 43.7883L199.127 38ZM206.32 38H203.685C203.067 37.9982 202.455 38.1263 201.884 38.3768C201.314 38.6274 200.795 38.9956 200.358 39.4602L195.151 45H197.925C198.973 45.0002 199.979 44.5655 200.73 43.7883L206.32 38ZM213.513 38H210.878C210.261 37.9982 209.649 38.1263 209.078 38.3768C208.507 38.6274 207.988 38.9956 207.551 39.4602L202.343 45H205.116C206.164 45.0002 207.171 44.5655 207.922 43.7883L213.513 38ZM220.706 38H218.071C217.454 37.9983 216.842 38.1264 216.271 38.377C215.7 38.6276 215.181 38.9957 214.745 39.4602L209.535 45H212.308C213.356 45.0002 214.363 44.5655 215.114 43.7883L220.706 38ZM227.9 38H225.265C224.647 37.9982 224.035 38.1262 223.464 38.3768C222.893 38.6274 222.374 38.9956 221.938 39.4602L216.727 45H219.5C220.548 45.0004 221.555 44.5656 222.305 43.7883L227.9 38ZM235.093 38H232.458C231.84 37.9982 231.228 38.1262 230.657 38.3768C230.086 38.6274 229.568 38.9956 229.131 39.4602L223.921 45H226.694C227.742 45.0004 228.748 44.5656 229.499 43.7883L235.093 38ZM242.286 38H239.651C239.033 37.9982 238.421 38.1263 237.851 38.3768C237.28 38.6274 236.761 38.9956 236.324 39.4602L231.111 45H233.884C234.931 45.0004 235.938 44.5656 236.689 43.7883L242.286 38ZM249.479 38H246.844C246.229 37.9999 245.619 38.1288 245.05 38.3793C244.481 38.6299 243.965 38.9971 243.53 39.4602L238.32 45H241.093C242.141 45.0004 243.147 44.5656 243.898 43.7883L249.479 38ZM256.672 38H254.037C253.422 37.9999 252.812 38.1288 252.243 38.3793C251.675 38.6299 251.158 38.9971 250.723 39.4602L245.513 45H248.286C249.334 45.0002 250.341 44.5655 251.092 43.7883L256.672 38ZM263.866 38H261.231C260.615 38 260.005 38.1289 259.437 38.3794C258.868 38.63 258.351 38.9972 257.916 39.4602L252.706 45H255.48C256.527 45.0002 257.534 44.5655 258.285 43.7883L263.866 38ZM271.059 38H268.424C267.808 38 267.199 38.129 266.63 38.3795C266.061 38.63 265.544 38.9972 265.109 39.4602L259.899 45H262.673C263.721 45.0002 264.727 44.5655 265.478 43.7883L271.059 38ZM278.252 38H275.617C275.001 37.9999 274.392 38.1289 273.823 38.3794C273.255 38.6299 272.738 38.9972 272.303 39.4602L267.07 45H269.843C270.891 45.0004 271.898 44.5656 272.649 43.7883L278.252 38ZM285.445 38H282.81C282.195 37.9999 281.585 38.1288 281.016 38.3793C280.447 38.6299 279.931 38.9971 279.496 39.4602L274.285 45H277.058C278.106 45.0004 279.113 44.5656 279.864 43.7883L285.445 38ZM292.639 38H290.003C289.388 37.9999 288.778 38.1288 288.209 38.3793C287.641 38.6299 287.124 38.9971 286.689 39.4602L281.479 45H284.252C285.3 45.0004 286.306 44.5656 287.057 43.7883L292.639 38ZM299.832 38H297.197C296.581 37.9999 295.971 38.1288 295.403 38.3793C294.834 38.6299 294.317 38.9971 293.882 39.4602L288.672 45H291.446C292.493 45.0004 293.5 44.5656 294.25 43.7883L299.832 38ZM307.025 38H304.39C303.774 38 303.165 38.1289 302.596 38.3794C302.027 38.63 301.51 38.9972 301.075 39.4602L295.865 45H298.639C299.687 45.0002 300.693 44.5655 301.444 43.7883L307.025 38Z" fill="white"/>
</g>
<path d="M320 41H565.5L583 23V4H543" stroke="white"/>
<circle cx="317" cy="41" r="3.5" stroke="white"/>
<circle cx="539" cy="4" r="4" fill="white"/>
<defs>
<clipPath id="clip0_851_4165">
<rect width="155" height="7" fill="white" transform="translate(0 38)"/>
</clipPath>
<clipPath id="clip1_851_4165">
<rect width="155" height="7" fill="white" transform="translate(152 38)"/>
</clipPath>
</defs>
</svg>

<svg width="584" height="45" preserveAspectRatio="none" fill="none" xmlns="http://www.w3.org/2000/svg"><path d="M583 30l-12 12h12V30z" fill="#fff" stroke="#fff"/><g clip-path="url(#clip0_851_4165)"><path d="M5.579 43.787a3.9 3.9 0 01-2.806 1.212H0l5.21-5.539a4.67 4.67 0 011.52-1.08A4.445 4.445 0 018.524 38h2.635l-5.58 5.787zM18.354 38H15.72c-.616 0-1.225.129-1.794.38a4.676 4.676 0 00-1.52 1.08L7.192 45h2.774a3.898 3.898 0 002.805-1.212L18.354 38zm7.193 0h-2.635c-.615 0-1.225.129-1.794.38a4.676 4.676 0 00-1.52 1.08L14.386 45h2.77a3.898 3.898 0 002.806-1.212L25.547 38zm7.193 0h-2.635c-.615 0-1.225.129-1.794.38a4.676 4.676 0 00-1.52 1.08L21.58 45h2.772a3.898 3.898 0 002.805-1.212L32.74 38zm7.194 0h-2.636c-.615 0-1.225.129-1.793.38a4.676 4.676 0 00-1.521 1.08L28.768 45h2.772a3.898 3.898 0 002.806-1.212L39.934 38zm7.193 0h-2.635c-.616 0-1.225.129-1.794.38a4.676 4.676 0 00-1.52 1.08L35.96 45h2.772a3.898 3.898 0 002.806-1.212L47.127 38zm7.193 0h-2.635a4.445 4.445 0 00-1.8.377c-.571.25-1.09.619-1.527 1.083L43.151 45h2.774a3.9 3.9 0 002.805-1.212L54.32 38zm7.193 0h-2.635a4.445 4.445 0 00-1.8.377c-.571.25-1.09.619-1.527 1.083L50.343 45h2.773a3.9 3.9 0 002.806-1.212L61.513 38zm7.194 0H66.07a4.445 4.445 0 00-1.8.377c-.57.25-1.09.619-1.526 1.083L57.535 45h2.773a3.9 3.9 0 002.806-1.212L68.707 38zm7.193 0h-2.636a4.443 4.443 0 00-1.8.377c-.57.25-1.09.619-1.526 1.083L64.727 45H67.5a3.898 3.898 0 002.805-1.212L75.9 38zm7.193 0h-2.635a4.443 4.443 0 00-1.8.377c-.572.25-1.09.619-1.527 1.083L71.921 45h2.773a3.898 3.898 0 002.805-1.212L83.093 38zm7.193 0h-2.635a4.445 4.445 0 00-1.8.377c-.571.25-1.09.619-1.527 1.083L79.111 45h2.773a3.898 3.898 0 002.805-1.212L90.286 38zm7.193 0h-2.635c-.615 0-1.225.129-1.794.38a4.677 4.677 0 00-1.52 1.08L86.32 45h2.773a3.896 3.896 0 002.805-1.212L97.479 38zm7.193 0h-2.635c-.615 0-1.225.129-1.794.38a4.68 4.68 0 00-1.52 1.08L93.513 45h2.773a3.9 3.9 0 002.806-1.212l5.58-5.788zm7.194 0h-2.635c-.616 0-1.226.129-1.794.38a4.675 4.675 0 00-1.521 1.08l-5.21 5.54h2.774a3.9 3.9 0 002.805-1.212L111.866 38zm7.193 0h-2.635c-.616 0-1.225.129-1.794.38a4.673 4.673 0 00-1.521 1.08l-5.21 5.54h2.774a3.899 3.899 0 002.805-1.212L119.059 38zm7.193 0h-2.635c-.616 0-1.225.129-1.794.38a4.68 4.68 0 00-1.52 1.08L115.07 45h2.773a3.9 3.9 0 002.806-1.212L126.252 38zm7.193 0h-2.635c-.615 0-1.225.129-1.794.38a4.67 4.67 0 00-1.52 1.08L122.285 45h2.773a3.9 3.9 0 002.806-1.212L133.445 38zm7.194 0h-2.636c-.615 0-1.225.129-1.794.38a4.68 4.68 0 00-1.52 1.08l-5.21 5.54h2.773a3.897 3.897 0 002.805-1.212L140.639 38zm7.193 0h-2.635c-.616 0-1.226.129-1.794.38a4.674 4.674 0 00-1.521 1.08l-5.21 5.54h2.774a3.895 3.895 0 002.804-1.212L147.832 38zm7.193 0h-2.635c-.616 0-1.225.129-1.794.38a4.675 4.675 0 00-1.521 1.08l-5.21 5.54h2.774a3.899 3.899 0 002.805-1.212L155.025 38z" fill="#fff"/></g><g clip-path="url(#clip1_851_4165)"><path d="M157.579 43.787a3.9 3.9 0 01-2.806 1.212H152l5.21-5.539a4.68 4.68 0 011.52-1.08 4.448 4.448 0 011.794-.38h2.635l-5.58 5.787zM170.354 38h-2.635c-.616 0-1.225.129-1.794.38a4.684 4.684 0 00-1.521 1.08L159.193 45h2.774a3.9 3.9 0 002.805-1.212L170.354 38zm7.193 0h-2.635a4.45 4.45 0 00-1.794.38 4.68 4.68 0 00-1.52 1.08L166.386 45h2.771a3.897 3.897 0 002.805-1.212L177.547 38zm7.193 0h-2.635a4.45 4.45 0 00-1.794.38 4.68 4.68 0 00-1.52 1.08L173.58 45h2.772a3.9 3.9 0 002.806-1.212L184.74 38zm7.194 0h-2.635c-.616 0-1.226.129-1.794.38a4.674 4.674 0 00-1.521 1.08L180.768 45h2.772a3.9 3.9 0 002.806-1.212L191.934 38zm7.193 0h-2.635c-.616 0-1.225.129-1.794.38a4.674 4.674 0 00-1.521 1.08L187.96 45h2.772a3.9 3.9 0 002.806-1.212L199.127 38zm7.193 0h-2.635a4.446 4.446 0 00-1.801.377 4.69 4.69 0 00-1.526 1.083L195.151 45h2.774a3.899 3.899 0 002.805-1.212L206.32 38zm7.193 0h-2.635a4.445 4.445 0 00-1.8.377c-.571.25-1.09.619-1.527 1.083L202.343 45h2.773a3.9 3.9 0 002.806-1.212L213.513 38zm7.193 0h-2.635a4.445 4.445 0 00-1.8.377 4.67 4.67 0 00-1.526 1.083l-5.21 5.54h2.773a3.9 3.9 0 002.806-1.212L220.706 38zm7.194 0h-2.635a4.445 4.445 0 00-1.801.377c-.571.25-1.09.619-1.526 1.083L216.727 45h2.773a3.896 3.896 0 002.805-1.212L227.9 38zm7.193 0h-2.635a4.445 4.445 0 00-1.801.377 4.679 4.679 0 00-1.526 1.083l-5.21 5.54h2.773a3.897 3.897 0 002.805-1.212L235.093 38zm7.193 0h-2.635a4.438 4.438 0 00-1.8.377c-.571.25-1.09.619-1.527 1.083L231.111 45h2.773a3.9 3.9 0 002.805-1.212L242.286 38zm7.193 0h-2.635c-.615 0-1.225.129-1.794.38a4.67 4.67 0 00-1.52 1.08L238.32 45h2.773a3.897 3.897 0 002.805-1.212L249.479 38zm7.193 0h-2.635c-.615 0-1.225.129-1.794.38a4.68 4.68 0 00-1.52 1.08l-5.21 5.54h2.773a3.9 3.9 0 002.806-1.212l5.58-5.788zm7.194 0h-2.635c-.616 0-1.226.129-1.794.38a4.675 4.675 0 00-1.521 1.08l-5.21 5.54h2.774a3.9 3.9 0 002.805-1.212L263.866 38zm7.193 0h-2.635c-.616 0-1.225.129-1.794.38a4.673 4.673 0 00-1.521 1.08l-5.21 5.54h2.774a3.899 3.899 0 002.805-1.212L271.059 38zm7.193 0h-2.635c-.616 0-1.225.129-1.794.38a4.68 4.68 0 00-1.52 1.08L267.07 45h2.773a3.9 3.9 0 002.806-1.212L278.252 38zm7.193 0h-2.635c-.615 0-1.225.129-1.794.38a4.67 4.67 0 00-1.52 1.08L274.285 45h2.773a3.9 3.9 0 002.806-1.212L285.445 38zm7.194 0h-2.636c-.615 0-1.225.129-1.794.38a4.68 4.68 0 00-1.52 1.08l-5.21 5.54h2.773a3.897 3.897 0 002.805-1.212L292.639 38zm7.193 0h-2.635c-.616 0-1.226.129-1.794.38a4.674 4.674 0 00-1.521 1.08l-5.21 5.54h2.774a3.895 3.895 0 002.804-1.212L299.832 38zm7.193 0h-2.635c-.616 0-1.225.129-1.794.38a4.675 4.675 0 00-1.521 1.08l-5.21 5.54h2.774a3.899 3.899 0 002.805-1.212L307.025 38z" fill="#fff"/></g><path d="M320 41h245.5L583 23V4h-40" stroke="#fff"/><circle cx="317" cy="41" r="3.5" stroke="#fff"/><circle cx="539" cy="4" r="4" fill="#fff"/><defs><clipPath id="clip0_851_4165"><path fill="#fff" transform="translate(0 38)" d="M0 0h155v7H0z"/></clipPath><clipPath id="clip1_851_4165"><path fill="#fff" transform="translate(152 38)" d="M0 0h155v7H0z"/></clipPath></defs></svg>
